!!!SOCIAL_FUNCTION:	songs connected with expeditions to obtain salt
!!!PDT:	1929
!!!OTL: No_125_The_Sun_Rises_Over_the_Mountain.krn
!!!REG: Southwest
!!!LANG: Non-Tone
!!!LING_GROUP: Uto-Aztecan
**kern
*staff1
=1-
*clefF4
*k[f#c#g#d#a#]
*M3/4
4.c#\
8c#\
8c#\L
8c#\J
=2||
*M2/4
4.c#\
16A#\LL
16G#\JJ
=3
4c#\
8.c#\L
16A#\Jk
=4||
*M3/4
8.G#\L
16G#\Jk
4G#\
8F#\
8r
=5||
*M2/4
8G#\L
8B\J
8.B\L
16G#\Jk
=6||
*M3/4
8.F#\L
16F#\Jk
4F#\
8D#\
8r
=7!|:
*M2/4
8F#\L
8G#\J
16G#\LK
8.F#\J
=8
16G#\LK
8.E\J
(16E/LK
8.BB/J)
=9||
*M3/4
12F#\L
12E\
12F#\J
16F#\LK
8.E\J
8G#\L
8E\J
=10
4F#\
4r
8G#\L
8E\J
=11
4.F#\
8F#\
8F#\L
8E\J
=12||
*M2/4
4F#\
4r
=13
8.F#\L
16F#\Jk
8F#/L
8BB/J
=14
8.F#\L
16F#\Jk
[4F#\
=15
2F#\]
=16
8G#\L
8c#\J
8.c#\L
16B\Jk
=17||
*M3/4
8G#\L
8G#\J
8G#\L
8G#\J
8G#\L
8F#\J
=18||
*M2/4
8G#\L
8B\J
8.B\L
16G#\Jk
=19||
*M3/4
8F#\L
8F#\J
8F#\L
8F#\J
8F#\L
8E\J
==:|!
*-
